X: 1
T: John Naughton's
M: 4/4
L: 1/8
R: reel
K: Gdor
GAGF DFCD|F2AF cFAF|GAGF DFCe|1 fdcA AGGF:|2 fdcA AGGg||
gfdg g2ag|fd (3=Bcd fdcg|gfdg g2fg|affg af~f2|
gfdg gfdg|fdcA FGAc|dg~g2 f3g|fdcA AGGF||
